X: 1
T:Redowa Polka
C:Michael Turner's MS
N:Third Part- Pump and Pluck Band
M:4/4
L:1/8
K:G
|:GB d2d2d2|dedc B2B2|GA B2GA B2|B2A2A4|
AB c2c2c2|cdcB A2A2|FG A2FG A2|A2G2G4:|
|:GB d2g2d2|d2c2cB c2|FA c2f2e2|e2d2d^c d2|
GB d2g2d2|d2c2cB c2|FA c2f2e2|d2ef g4:|
|:
K:C
G,2CD ED C2|A,2DE FE D2|G2^FF =F2B,2|CD EC A,2G,2|
G,2CD ED C2|A,2DE FE D2|G2^FF =F2B,2|D2C2(C2C2):|
